X: 1023
T: Alms For The Piper
R: reel
M: 4/4
K: Dmixolydian
|:c2Ac BG~G2|A2dB cAAB|c2A/B/c BG~G2|1 AFGF D4:|2 AFGF D3E||
|:EGGA AGGB|GGcG BGAG|EGGA AGGA|1 Adde dcAG:|2 Add^cd2de||
|:f2df gefd|c2Ac ecde|f2d/e/f gefd|1 cABc d2de:|2 cABc d4||

